packages/icons/svg/Outline/plus-circle.svg

<svg fill="none" height="24" viewBox="0 0 24 24" width="24" xmlns="http://www.w3.org/2000/svg"><path clip-rule="evenodd" d="m15 11h-2v-2c0-.55-.45-1-1-1s-1 .45-1 1v2h-1.99997c-.55 0-1 .45-1 1s.45 1 1 1h1.99997v2c0 .55.45 1 1 1s1-.45 1-1v-2h2c.55 0 1-.45 1-1s-.45-1-1-1zm-3 9.0001c-4.41095 0-7.99995-3.589-7.99995-8 0-4.41104 3.589-8.00003 7.99995-8.00003 4.411 0 8 3.58899 8 8.00003 0 4.411-3.589 8-8 8zm0-18.0001c-5.51397 0-9.99997 4.486-9.99997 10s4.486 10 9.99997 10c5.514 0 10-4.486 10-10s-4.486-10-10-10z" fill="#6b7280" fill-rule="evenodd"/></svg>

<svg width="24" height="24" viewBox="0 0 24 24" fill="none" xmlns="http://www.w3.org/2000/svg">
<g id="Icon/Outline/plus-circle">
<path id="Mask" fill-rule="evenodd" clip-rule="evenodd" d="M15 11H13V9C13 8.45 12.55 8 12 8C11.45 8 11 8.45 11 9V11H9C8.45 11 8 11.45 8 12C8 12.55 8.45 13 9 13H11V15C11 15.55 11.45 16 12 16C12.55 16 13 15.55 13 15V13H15C15.55 13 16 12.55 16 12C16 11.45 15.55 11 15 11ZM12 20C7.589 20 4 16.411 4 12C4 7.589 7.589 4 12 4C16.411 4 20 7.589 20 12C20 16.411 16.411 20 12 20ZM12 2C6.486 2 2 6.486 2 12C2 17.514 6.486 22 12 22C17.514 22 22 17.514 22 12C22 6.486 17.514 2 12 2Z" fill="#000000"/>
</g>
</svg>
